build/redact/CellsMergeOutline.svg

<svg xmlns="http://www.w3.org/2000/svg" fill="none" viewBox="0 0 24 24" focusable="false"><path d="M0 0H24V24H0z" transform="matrix(1 0 0 -1 0 24)"/><path fill="#74767B" fill-rule="evenodd" d="M7 4C5.34315 4 4 5.34315 4 7L4 17.0041C4 18.6609 5.34315 20.0041 7 20.0041L17 20.0041C18.6569 20.0041 20 18.6609 20 17.0041L20 7C20 5.34315 18.6569 4 17 4L7 4ZM11.3462 5.3L7 5.3C6.06112 5.3 5.3 6.06112 5.3 7L5.3 8.90856L11.3462 8.90856L11.3462 5.3ZM12.6462 5.3L17 5.3C17.9389 5.3 18.7 6.06112 18.7 7L18.7 8.90856L12.6462 8.90856L12.6462 5.3ZM5.3 13.7957L5.3 10.2086L18.7 10.2086L18.7 13.7957L5.3 13.7957ZM5.3 15.0957L5.3 17.0041C5.3 17.943 6.06112 18.7041 7 18.7041L11.3284 18.7041L11.3284 15.0957L5.3 15.0957ZM12.6284 15.0957L12.6284 18.7041L17 18.7041C17.9389 18.7041 18.7 17.943 18.7 17.0041L18.7 15.0957L12.6284 15.0957Z"/></svg>

<svg xmlns="http://www.w3.org/2000/svg" fill="none" viewBox="0 0 24 24" focusable="false"><path fill="#74767B" fill-rule="evenodd" d="M7 4C5.34 4 4 5.34 4 7v10c0 1.66 1.34 3 3 3h10c1.65 0 3-1.34 3-3V7c0-1.66-1.35-3-3-3zm4.34 1.29H7c-.94 0-1.71.77-1.71 1.71v1.9h6.05zm1.3 0H17c.93 0 1.7.77 1.7 1.71v1.9h-6.06zm-7.35 8.5V10.2H18.7v3.59zm0 1.3V17c0 .94.77 1.7 1.71 1.7h4.32v-3.61zm7.33 0v3.61H17c.93 0 1.7-.76 1.7-1.7v-1.91z"/></svg>
